X:8
T:Fanteladda
T:Finnskogspols
R:polska L1
A:V\"armland
A:Elverum, Norge
Z:id:hn-L1-8
M:3/4
L:1/8
K:D
A>B A>G FG | A2 d2 f2 | A>B A>G FE |1 E2 D4 :|2 E2 D2 ||
|: Ac | e2 e2 Ad | f2 f2 ef | g>f e>d cB | B2 A2 BA |
G2 G2 AG | F2 F2 GF | E>F G>A Bc |1 d2 d2 :|2 d2 d4 ||

